X: 1137
T:Buckley's Fancy (A60)
N: page A60
N: heptatonic
S:Trad, arr. Paddy O'Brien
R:reel
E:9
I:speed 350
M:C|
K:G
F2|"G"~G2 BG dGBG|ABcd "C"egdB|"G"~G2 BG dGBG|\
ABAG "D"FDEF|"G"~G2BG dGBG|
ABcd "C"efga|"G"bgaf gedB|GBAF G2:|\
Bd|gfga "C"gede|"G"gabg "C"ageg|
"G"agab agef|gabg "C"~e2 de|"G"gfga gede|\
gabg agef|~g2fa gedB|GBAF G2:|
